X:1174
T:Duke of Richmond's March.
M:C
L:1/8
Q:1/2=72
I: :: ::
Z:Jack Campin * www.campin.me.uk * 2009
K:D
[V:1]  A2 |d2d>e d2A2 |d2d>d d2f>g|a2b>a g2a>g|fefg f2Te2 |
[V:2]  A>G|F2F>A F2d>e|f2f>f f2d>e|f2g>f e2f>e|dcde d2 A2 |
%
[V:1]      d2d>e d2A2 |d6      fg |a2ba  g2ag |f6        :|
[V:2]      F2F>A F2D2 |F2D2  F2de |f2gf  e2fe |d2D2    A2:|
%
[V:1]  fg |a2a2  a2ba |g2g2  g2ag |f2ef  gfed |edcB A2 fg |
[V:2]  de |f2f2  f2gf |e2e2  e2fe |d2cd  edcB |A6      de |
%
[V:1]      a2a>a a2b>a|g2g>g g2ag |fefg Te3 d |d6        :|
[V:2]      f2f>f f2g>f|e2e>e e2fe |dcde  A3 A |F6        :|
<end>
<start>
